X: 305610
T: MAY BANKS REEL
C:
%R: reel
B: Elias Howe "The Musician's Companion" Part 3 1844 p.74 #3
S: http://imslp.org/wiki/The_Musician's_Companion_(Howe,_Elias)
Z: 2015 John Chambers <jc:trillian.mit.edu>
M: 2/4
L: 1/16
K: D
% - - - - - - - - - - - - - - - - - - - - - - - - -
|:\
D2-DA FDdF | E2Ee ^GEeg |\
fdec dBc[cA] | GBAG DD/D/D ::\
abag dfag | gebe gebe |
abaf dfaf | gfaf dd/d/d |\
abaf dfaf | geae geae |\
dfeg fbdc | e>BA>F DD/D/D :|
% - - - - - - - - - - - - - - - - - - - - - - - - -


